X: 23503
T: Liam Childs
R: slip jig
M: 9/8
K: Dmajor
D2 E|:F3 FED FAA|E3 EDE FDA|D3 D3 DBA|FEE EFE D2 E|
F3 FED FAA|E3 EDE FDA|D3 D3 DBA|FEE EFE D3:|
|:dBA F3 FED|dBA FED B2 D|dBA F2 E FAd|B2 A Bdf e2 f|
dBA F3 FED|dBA FED B2 D|E3 E3 EDB|BAF EFE D3:|

